!!!COM: Music21
!!!OTL: strathspey_Reel-Of-Tulloch--The
!!!OMV: strathspey_Reel-Of-Tulloch--The
**kern
*clefG2
*k[f#c#g#]
*A:
*M4/4
=1
16aaLL
16ff#JJ
=
4ee
8.aaL
16cc#Jk
8.eeL
16cc#Jk
8.aL
16aaJk
=
4ee
8.aL
16cc#Jk
8.ddL
16bJk
8.gnL
16ff#Jk
=
4ee
8.aL
16cc#Jk
8.eeL
16aJk
8.cc#L
16aJk
=
8.bL
16eJk
16cc#LL
16ddJ
8eeJ
8.ddL
16bJk
8.gnL
16ff#Jk
!!linebreak:original
=
4ee
8.eeL
16cc#Jk
8eeL
8cc#J
8aL
8aaJ
=
4ee
8.eeL
16cc#Jk
8ddL
8bJ
8gnL
8ff#J
=
4ee
8.eeL
16aaJk
8.eeL
16aJk
8.cc#L
16aJk
=
8bL
8eeJ
8cc#L
8eeJ
8.ddL
16bJk
8.gnL
16bJk
=||
8.cc#L
16aJk
16cc#LL
16ddJ
8eeJ
8cc#L
8aJ
8aL
8bJ
!!linebreak:original
=
8.cc#L
16aJk
16cc#LL
16ddJ
8eeJ
8ddL
8bJ
8gnL
8bJ
=
8cc#L
8aJ
16cc#LL
16ddJ
8eeJ
8cc#L
8aJ
8cc#L
8aJ
=
8bL
8eJ
8bL
8eeJ
8ddL
8bJ
8gnL
8bJ
=
8cc#L
8aJ
16cc#LL
16ddJ
8eeJ
8cc#L
8aJ
8aL
8bJ
!!linebreak:original
=
8cc#L
8aJ
16cc#LL
16ddJ
8eeJ
8ddL
8bJ
8gnL
8bJ
=
8cc#L
8aJ
16cc#LL
16ddJ
8eeJ
4cc#
8.cc#L
16eeJk
=
8bL
8eeJ
8cc#L
8eeJ
8.ddL
16bJk
8.gnL
16ff#Jk
=||
*-
